X:1
T:Title
%%score { ( 1 4 ) | ( 2 3 ) }
L:1/8
M:2/2
K:D
V:1 treble nm="Grand Piano"
V:4 treble 
V:2 bass 
V:3 bass 
V:1
 z4 z2[Q:1/4=100] [DF][EG] | [FA]2 F2 D2 d2 | c2 B4 B2 | [FA]2 F2 D2 F2 |[M:3/4] [CE]6 | %5
[M:1/4] [CA]2 |[M:4/4] A2 F2 D2 d2 | c2 B4 B2 | A3 A [CEG]2[K:bass] [G,CE]2 | [F,D]6 z2 | %10
 [Fd]2 [Fd]>[Fd] [Ac]2 .[B,GB]2 | [DFA]4 [A,DF]2 [A,FA]2 | [Fd]3 [Gc] d2 F2 |[M:7/8] A-A-A- A- A3 | %14
[M:1/4] [A,CG]2 |[M:4/4] [A,DF]2 [A,DF]>[A,EG] [DFA]2 D2 | B2 d4 B2 | A3 A [CEG]2[K:bass] [G,CE]2 | %18
[M:3/4] [F,D]6 |] %19
V:2
 z4 z2 [D,A,][D,A,] | [D,D]2 [D,A,D]2 [D,F,]2 [F,A,D]2 | [G,D]2 [G,D]4 [G,DG]2 | %3
 [D,D]2 [D,A,D]2 [F,A,]2 [D,A,D]2 |[M:3/4] [A,,A,]6 |[M:1/4] [A,,G,]2 | %6
[M:4/4] [D,F,D]2 [D,A,D]2 [D,F,]2 [F,A,D]2 | [G,D]2 [G,D]4 [G,DG]2 | %8
 [A,DF]3 [A,DF][K:bass] A,,2 A,,2 | D,6 z2 | [D,A,]2 [D,A,]>[D,A,] [D,A,]2 z C | D,4 D,2 D,2 | %12
 [D,A,]3 [E,A,] [F,A,D]2 [D,A,D]2 |[M:7/8] [CE]2 D2 E3 |[M:1/4] A,,2 | %15
[M:4/4] D,2 D,>D, D,2 [F,A,]2 | [G,D]2 [G,B,D]4 [G,DG]2 | [A,DF]3 [A,DF][K:bass] A,,2 A,,2 | %18
[M:3/4] D,6 |] %19
V:3
 x8 | x8 | x8 | x8 |[M:3/4] x6 |[M:1/4] x2 |[M:4/4] x8 | x8 | x4[K:bass] x4 | x8 | z4 z2 D,2 | x8 | %12
 x8 |[M:7/8] A,-A,-A,- A,- A,3 |[M:1/4] x2 |[M:4/4] x8 | x8 | x4[K:bass] x4 |[M:3/4] x6 |] %19
V:4
 x8 | x8 | x8 | x8 |[M:3/4] x6 |[M:1/4] x2 |[M:4/4] x8 | x8 | x6[K:bass] x2 | x8 | x8 | x8 | x8 | %13
[M:7/8] z2 F2 G3 |[M:1/4] x2 |[M:4/4] x8 | x8 | x6[K:bass] x2 |[M:3/4] x6 |] %19

